X: 4823
T: Boys Of The Town, The
R: jig
M: 6/8
K: Gmajor
|:~G3 GBd|edB dBA|~G3 GBd|edB AFD|
~G3 GBd|edB ~g3|edB AGA|1 AGF G2D:|2 BGF G2B||
def g2g|afd edB|def ~g3|afd ~e3|
def g2g|afd efg|edB AGA|AGF G2B|
def g2g|afd edB|def gbg|afd ~e3|
def gbb|faa efg|edB AGA|AGF G2D||

